X:119
T:Reels simple chords 344
M:3/4
L:1/8
K:D
DF [A2F,2A,2C2] A2 | A2 A2 [AB,DFA]B | AG F2 A2 | [GE,G,B,]A GF E2 | C2 [D2D,2F,2A,2] F2 |
A2 DF [A2F,2A,2C2] | A2 A2 A2 | [A^E,A,=C]B AG F2 | A2 [GE,G,B,]A GF |
E2 C2 [D4D,4F,4A,4] | D2 DF | [A2F,2A,2C2] A2 A2 | A2 [AB,DFA]B AG |
F2 A2 [GE,G,B,]A | GF E2 C2 | [D2D,2F,2A,2] F2 A2 | DF [A2F,2A,2C2] A2 |
A2 A2 [A^E,A,=C]B | AG F2 A2 | [GE,G,B,]A GF E2 | C2 [D4D,4F,4A,4] |
D2 DF [A2D,2F,2A,2] | d2 A2 F2 | [G2=C,2E,2G,2] B2 E3 |D [C2A,2C2E2G2] E2 |
G2 C2 [D2D,2F,2A,2] | F2 A2 DF | [A2D,2F,2A,2] d2 A2 | F2 [G2=C,2E,2G,2] B2 |
E2>D2 [C2A,2C2E2G2] | E2 B2 C2 | [D4D,4F,4A,4] D2 | DF [A2D,2F,2A,2] d2 |
A2 F2 [G2=C,2E,2G,2] | B2 E2>D2 | [C2A,2C2E2G2] E2 G2 | C2 [D2D,2F,2A,2] F2 |
A2 DF [A2D,2F,2A,2] | d2 A2 F2 | [G2=C,2E,2G,2] B2 E3 |D [C2A,2C2E2G2] E2 |
B2 C2 [D4D,4F,4A,4] | D2 |


